X:1
T:Meirionydd, 76.76 D
T:Meirionydd, 76.76 D
T:William Freeman Lloyd, 1840
T:Public Domain Courtesy of the Cyber Hymnal™
C:William Freeman Lloyd, 1840
Z:Public Domain
Z:Courtesy of the Cyber Hymnal™
%%score ( 1 2 ) ( 3 4 )
L:1/8
Q:1/4=113
M:4/4
K:Eb
V:1 treble 
V:2 treble 
V:3 bass 
V:4 bass 
V:1
 ([GB]3 [FA]) | [EG]2 (GF) [CE]2 [DF]2 | [EG]4 [EG]2 [EB]2 | [DA]2 [EG]2 (AG) [DF]2 | E4 (B3 A) | %5
 [EG]2 (GF) [CE]2 [DF]2 | [EG]6 [DB]2 | [EA]2 [EG]2 ([FA][EG]) [DF]2 | E4 [GB]4 | %9
 [Ec]2 [EB]2 [Ec]2 [Ed]2 | [Ee]4 [FB]2 [EG]2 | [EB]2 [Ec]2 [EB]2 G2 | [DF]4 (G3 F) | %13
 [CE]2 (EF) [DG]2 (GF) | (G2 =A2) [B,B]2 [B,E]2 | [EG]2 [EB]2 (AG) [DF]2 | E4 |] %17
V:2
 x4 | x2 D2 x4 | x8 | x4 E2 x2 | E4 F4 | x2 D2 x4 | x8 | x8 | E4 x4 | x8 | x8 | x6 (B,C) | x4 D4 | %13
 x6 E2 | E4 x4 | x4 E2 x2 | E4 |] %17
V:3
 [E,B,]4 | [E,B,]2 (B,A,) [C,G,]2 [B,,B,]2 | [E,B,]4 [E,B,]2 [G,B,]2 | %3
 [F,B,]2 [E,B,]2 (CB,) [B,,A,]2 | [E,G,]4 [D,B,]4 | [E,B,]2 (B,A,) [C,G,]2 [B,,B,]2 | %6
 [E,B,]6 [G,B,]2 | [C,C]2 [E,B,]2 [A,,C]2 [B,,F,]2 | [E,G,]4 [E,E]4 | %9
 [A,C]2 [G,E]2 ([A,C][G,B,]) [F,A,]2 | (G,2 =A,2) [D,B,]2 [E,B,]2 | [G,B,]2 A,2 [G,B,]2 [E,B,]2 | %12
 [B,,B,]4 [=B,,G,]4 | [C,G,]2 [C,A,]2 [B,,B,]2 [A,,C]2 | ([E,B,][D,B,]) [C,E,]2 [D,F,]2 [E,G,]2 | %15
 [C,C]2 [G,,B,]2 [A,,C]2 [B,,F,]2 | [E,G,]4 |] %17
V:4
 x4 | x2 B,,2 x4 | x8 | x4 A,,2 x2 | x8 | x2 B,,2 x4 | x8 | x8 | x8 | x8 | C,4 x4 | x8 | x8 | x8 | %14
 x8 | x8 | x4 |] %17

